1x90-sides-2.svg

<?xml version="1.0" encoding="UTF-8" standalone="no"?>
<svg
   width="881mm"
   height="341mm"
   viewBox="0 -341 881 341"
   version="1.1"
   id="svg6"
   sodipodi:docname="1x90-sides-2.svg"
   inkscape:version="1.2.1 (9c6d41e410, 2022-07-14, custom)"
   xmlns:inkscape="http://www.inkscape.org/namespaces/inkscape"
   xmlns:sodipodi="http://sodipodi.sourceforge.net/DTD/sodipodi-0.dtd"
   xmlns="http://www.w3.org/2000/svg"
   xmlns:svg="http://www.w3.org/2000/svg">
  <defs
     id="defs10" />
  <sodipodi:namedview
     id="namedview8"
     pagecolor="#ffffff"
     bordercolor="#666666"
     borderopacity="1.0"
     inkscape:showpageshadow="2"
     inkscape:pageopacity="0.0"
     inkscape:pagecheckerboard="0"
     inkscape:deskcolor="#d1d1d1"
     inkscape:document-units="mm"
     showgrid="false"
     inkscape:zoom="4.8779795"
     inkscape:cx="337.02479"
     inkscape:cy="125.05178"
     inkscape:window-width="2560"
     inkscape:window-height="1389"
     inkscape:window-x="0"
     inkscape:window-y="27"
     inkscape:window-maximized="1"
     inkscape:current-layer="svg6"
     inkscape:lockguides="true" />
  <title
     id="title2">OpenSCAD Model</title>
  <path
     id="path139"
     style="fill:none;stroke:#000000;stroke-opacity:1"
     d="m 2.9998169,-341 v 8.99997 H 0 v 7.3334 h 2.9998169 v 7.3334 H 0 v 7.3334 h 2.9998169 v 8.99997 h 8.9999671 v -3.00033 h 6.132959 v 3.00033 h 6.133993 v -3.00033 h 6.132959 v 3.00033 h 6.132959 v -3.00033 h 6.133992 v 3.00033 h 6.132959 v -3.00033 h 6.132959 v 3.00033 h 6.133993 v -3.00033 h 6.133476 v 3.00033 h 6.132959 v -3.00033 h 6.133992 v 3.00033 h 6.132959 v -3.00033 h 6.132959 v 3.00033 h 6.133993 v -3.00033 h 6.132955 v 3.00033 h 6.13296 v -3.00033 h 6.134 v 3.00033 h 6.13295 v -3.00033 h 6.13296 v 3.00033 h 6.134 v -3.00033 h 6.13295 v 3.00033 h 6.13296 v -3.00033 h 6.134 v 3.00033 h 6.13295 v -3.00033 h 6.13296 v 3.00033 h 6.134 v -3.00033 h 6.13347 v 3.00033 h 6.13296 v -3.00033 h 6.13399 v 3.00033 h 6.13296 v -3.00033 h 6.13296 v 3.00033 h 6.13399 v -3.00033 h 6.13296 v 3.00033 h 6.13296 v -3.00033 h 6.13399 v 3.00033 h 6.13296 v -3.00033 h 6.13296 v 3.00033 h 6.134 v -3.00033 h 6.13295 v 3.00033 h 6.13296 v -3.00033 h 6.134 v 3.00033 h 6.13295 v -3.00033 h 6.13296 v 3.00033 h 6.13451 v -3.00033 h 6.13296 v 3.00033 h 8.99997 v -8.99997 h 2.99982 v -7.3334 h -2.99982 v -7.3334 h 2.99982 v -7.3334 h -2.99982 V -341 H 129.99982 v 25.02896 c 0,2.77 -2.2297,4.9997 -4.9997,4.9997 h -9.9999 c -2.77,0 -5.00022,-2.2297 -5.00022,-4.9997 V -341 H 75 v 25.57777 c 0,2.76998 -2.230003,4.99969 -5,4.99969 h -9.999894 c -2.769998,0 -5.000224,-2.15629 -5.000212,-4.99969 L 55,-341 Z"
     sodipodi:nodetypes="cccccccccccccccccccccccccccccccccccccccccccccccccccccccccccccccccccccccccccccccccccccccccccccccccccccccccccccccccssssccsssscc" />
  <path
     id="path137"
     style="fill:none;stroke:#000000;stroke-opacity:1"
     d="m 2.9998169,-298.4083 v 8.99997 H 0 v 7.3334 h 2.9998169 v 7.3334 H 0 v 7.3334 h 2.9998169 v 8.99997 h 8.9999671 v -3.00033 h 6.132959 v 3.00033 h 6.13451 v -3.00033 h 6.132959 v 3.00033 h 6.132959 v -3.00033 h 6.133992 v 3.00033 h 6.132959 v -3.00033 h 6.132959 v 3.00033 h 6.133993 v -3.00033 h 6.132959 v 3.00033 h 6.132959 v -3.00033 h 6.133992 v 3.00033 h 6.132959 v -3.00033 h 6.132959 v 3.00033 h 6.133993 v -3.00033 h 6.132955 v 3.00033 h 6.13296 v -3.00033 h 6.134 v 3.00033 h 6.13295 v -3.00033 h 6.13348 v 3.00033 h 6.13399 v -3.00033 h 6.13296 v 3.00033 h 6.13296 v -3.00033 h 6.13399 v 3.00033 h 6.13296 v -3.00033 h 6.13296 v 3.00033 h 6.13399 v -3.00033 h 6.13296 v 3.00033 h 6.13296 v -3.00033 h 6.13399 v 3.00033 h 6.13296 v -3.00033 h 6.13296 v 3.00033 h 6.13399 v -3.00033 h 6.13296 v 3.00033 h 6.13296 v -3.00033 h 6.13399 v 3.00033 h 6.13296 v -3.00033 h 6.13348 v 3.00033 h 6.13399 v -3.00033 h 6.13296 v 3.00033 h 6.13296 v -3.00033 h 6.13399 v 3.00033 h 6.13296 v -3.00033 h 6.13296 v 3.00033 h 6.13399 v -3.00033 h 6.13296 v 3.00033 h 8.99997 v -8.99997 h 2.99982 v -7.3334 h -2.99982 v -7.3334 h 2.99982 v -7.3334 h -2.99982 v -8.99997 h -22.00021 v 25.00002 c 0,2.77 -2.2297,4.9997 -4.99969,4.9997 h -65.00017 c -2.77,0 -4.99969,-2.2297 -4.99969,-4.9997 v -25.00002 z" />
</svg>

<?xml version="1.0" encoding="UTF-8" standalone="no"?>
<svg
   width="881mm"
   height="341mm"
   viewBox="0 -341 881 341"
   version="1.1"
   id="svg6"
   sodipodi:docname="1x90-sides-2.svg"
   inkscape:version="1.2.1 (9c6d41e410, 2022-07-14, custom)"
   xmlns:inkscape="http://www.inkscape.org/namespaces/inkscape"
   xmlns:sodipodi="http://sodipodi.sourceforge.net/DTD/sodipodi-0.dtd"
   xmlns="http://www.w3.org/2000/svg"
   xmlns:svg="http://www.w3.org/2000/svg">
  <defs
     id="defs10" />
  <sodipodi:namedview
     id="namedview8"
     pagecolor="#ffffff"
     bordercolor="#666666"
     borderopacity="1.0"
     inkscape:showpageshadow="2"
     inkscape:pageopacity="0.0"
     inkscape:pagecheckerboard="0"
     inkscape:deskcolor="#d1d1d1"
     inkscape:document-units="mm"
     showgrid="false"
     inkscape:zoom="1.7246262"
     inkscape:cx="567.07939"
     inkscape:cy="169.89188"
     inkscape:window-width="2560"
     inkscape:window-height="1389"
     inkscape:window-x="0"
     inkscape:window-y="27"
     inkscape:window-maximized="1"
     inkscape:current-layer="svg6"
     inkscape:lockguides="true" />
  <title
     id="title2">OpenSCAD Model</title>
  <path
     id="path139"
     style="fill:none;stroke:#000000;stroke-opacity:1"
     d="M 2.9998169 -341 L 2.9998169 -332.00003 L 0 -332.00003 L 0 -324.66663 L 2.9998169 -324.66663 L 2.9998169 -317.33323 L 0 -317.33323 L 0 -309.99983 L 2.9998169 -309.99983 L 2.9998169 -300.99986 L 11.999784 -300.99986 L 11.999784 -304.00019 L 18.132743 -304.00019 L 18.132743 -300.99986 L 24.266736 -300.99986 L 24.266736 -304.00019 L 30.399695 -304.00019 L 30.399695 -300.99986 L 36.532654 -300.99986 L 36.532654 -304.00019 L 42.666646 -304.00019 L 42.666646 -300.99986 L 48.799605 -300.99986 L 48.799605 -304.00019 L 54.932564 -304.00019 L 54.932564 -300.99986 L 61.066557 -300.99986 L 61.066557 -304.00019 L 67.200033 -304.00019 L 67.200033 -300.99986 L 73.332992 -300.99986 L 73.332992 -304.00019 L 79.466984 -304.00019 L 79.466984 -300.99986 L 85.599943 -300.99986 L 85.599943 -304.00019 L 91.732902 -304.00019 L 91.732902 -300.99986 L 97.866895 -300.99986 L 97.866895 -304.00019 L 103.99985 -304.00019 L 103.99985 -300.99986 L 110.13281 -300.99986 L 110.13281 -304.00019 L 116.26681 -304.00019 L 116.26681 -300.99986 L 122.39976 -300.99986 L 122.39976 -304.00019 L 128.53272 -304.00019 L 128.53272 -300.99986 L 134.66672 -300.99986 L 134.66672 -304.00019 L 140.79967 -304.00019 L 140.79967 -300.99986 L 146.93263 -300.99986 L 146.93263 -304.00019 L 153.06663 -304.00019 L 153.06663 -300.99986 L 159.19958 -300.99986 L 159.19958 -304.00019 L 165.33254 -304.00019 L 165.33254 -300.99986 L 171.46654 -300.99986 L 171.46654 -304.00019 L 177.60001 -304.00019 L 177.60001 -300.99986 L 183.73297 -300.99986 L 183.73297 -304.00019 L 189.86696 -304.00019 L 189.86696 -300.99986 L 195.99992 -300.99986 L 195.99992 -304.00019 L 202.13288 -304.00019 L 202.13288 -300.99986 L 208.26687 -300.99986 L 208.26687 -304.00019 L 214.39983 -304.00019 L 214.39983 -300.99986 L 220.53279 -300.99986 L 220.53279 -304.00019 L 226.66678 -304.00019 L 226.66678 -300.99986 L 232.79974 -300.99986 L 232.79974 -304.00019 L 238.9327 -304.00019 L 238.9327 -300.99986 L 245.0667 -300.99986 L 245.0667 -304.00019 L 251.19965 -304.00019 L 251.19965 -300.99986 L 257.33261 -300.99986 L 257.33261 -304.00019 L 263.46661 -304.00019 L 263.46661 -300.99986 L 269.59956 -300.99986 L 269.59956 -304.00019 L 275.73252 -304.00019 L 275.73252 -300.99986 L 281.86703 -300.99986 L 281.86703 -304.00019 L 287.99999 -304.00019 L 287.99999 -300.99986 L 296.99996 -300.99986 L 296.99996 -309.99983 L 299.99978 -309.99983 L 299.99978 -317.33323 L 296.99996 -317.33323 L 296.99996 -324.66663 L 299.99978 -324.66663 L 299.99978 -332.00003 L 296.99996 -332.00003 L 296.99996 -341 L 129.99982 -341 L 129.99982 -315.97104 C 129.99982 -313.20104 127.77012 -310.97134 125.00012 -310.97134 L 115.00022 -310.97134 C 112.23022 -310.97134 110 -313.20104 110 -315.97104 L 110 -341 L 69.999862 -341 L 69.999862 -315.42223 C 69.999862 -312.65225 67.769647 -310.42254 64.99965 -310.42254 L 54.999744 -310.42254 C 52.229746 -310.42254 49.999532 -312.65225 49.999532 -315.42223 L 49.999532 -341 L 2.9998169 -341 z " />
  <path
     id="path137"
     style="fill:none;stroke:#000000;stroke-opacity:1"
     d="m 2.9998169,-298.4083 v 8.99997 H 0 v 7.3334 h 2.9998169 v 7.3334 H 0 v 7.3334 h 2.9998169 v 8.99997 h 8.9999671 v -3.00033 h 6.132959 v 3.00033 h 6.13451 v -3.00033 h 6.132959 v 3.00033 h 6.132959 v -3.00033 h 6.133992 v 3.00033 h 6.132959 v -3.00033 h 6.132959 v 3.00033 h 6.133993 v -3.00033 h 6.132959 v 3.00033 h 6.132959 v -3.00033 h 6.133992 v 3.00033 h 6.132959 v -3.00033 h 6.132959 v 3.00033 h 6.133993 v -3.00033 h 6.132955 v 3.00033 h 6.13296 v -3.00033 h 6.134 v 3.00033 h 6.13295 v -3.00033 h 6.13348 v 3.00033 h 6.13399 v -3.00033 h 6.13296 v 3.00033 h 6.13296 v -3.00033 h 6.13399 v 3.00033 h 6.13296 v -3.00033 h 6.13296 v 3.00033 h 6.13399 v -3.00033 h 6.13296 v 3.00033 h 6.13296 v -3.00033 h 6.13399 v 3.00033 h 6.13296 v -3.00033 h 6.13296 v 3.00033 h 6.13399 v -3.00033 h 6.13296 v 3.00033 h 6.13296 v -3.00033 h 6.13399 v 3.00033 h 6.13296 v -3.00033 h 6.13348 v 3.00033 h 6.13399 v -3.00033 h 6.13296 v 3.00033 h 6.13296 v -3.00033 h 6.13399 v 3.00033 h 6.13296 v -3.00033 h 6.13296 v 3.00033 h 6.13399 v -3.00033 h 6.13296 v 3.00033 h 8.99997 v -8.99997 h 2.99982 v -7.3334 h -2.99982 v -7.3334 h 2.99982 v -7.3334 h -2.99982 v -8.99997 h -22.00021 v 25.00002 c 0,2.77 -2.2297,4.9997 -4.99969,4.9997 h -65.00017 c -2.77,0 -4.99969,-2.2297 -4.99969,-4.9997 v -25.00002 z" />
</svg>
